X:1
T:Title
%%score { ( 1 3 ) | ( 2 4 ) }
L:1/8
M:6/8
K:Db
V:1 treble nm="Grand Piano"
V:3 treble 
V:2 bass 
V:4 bass 
V:1
 z3 z2[Q:1/4=90] [FA] | [FA]2 F F2 z/ E/ | F2 E D2 [FA] | [Fd]2 [Fd] [Fd]2 [FA] | c2 B B2 B | %5
 [FA]2 [Fd] [Af]>[Ge][Ad] | e2 d c2 B | A2 A [FA]2 z/ E/ | [A,DF]2[K:bass] [G,CE] [F,D]3 | %9
 [A,FA][FA][FA] [FA][GB][Gc] | d2- [Fd-] [Fd]3 | ddd [Bd]c[DGB] | [FA]6 | %13
 [Af]2 [Af] [Af]>[Ge][Ad] | e2 d c2 B | A.A>E [A,DF][A,DF][K:bass][G,CE] | %16
[M:5/8] [F,D]-[F,D]- [F,D]3 |] %17
V:2
 z3 z2 [D,A,] | [D,A,]2 [D,A,D] [D,A,D]2 F,/G,/ | [D,A,D]2 [D,G,C] [D,F,]2 [D,A,] | %3
 [D,A,]2 [D,A,] [D,A,]2 [D,A,] | [G,B,G]2 [G,DG] [G,DG]2 [G,DG] | [D,D]2 [D,D] [D,D]>[E,B,][F,A,] | %6
 [G,B,G]2 [G,B,G] [G,B,G]2 [G,DG] | [A,DF]2 [A,DF][K:bass] [A,,A,]2 F,/G,/ | A,,2 A,, D,3 | %9
 D,[D,D][D,D] [D,D]2 [D,D] | [D,A,]2 [D,A,] [D,A,]3 | [G,B,G][G,B,G][G,B,G] z AG, | %12
 D,2 D, D,2 [D,A,] | [D,D]2 [D,D] [D,D]>[E,B,][F,A,] | [G,B,G]2 [G,B,G] [G,G]2- [G,DG] | %15
 [A,DF][A,DF][K:bass]D,/-[D,G,]/ A,,A,,A,, |[M:5/8] D,-D,- D,3 |] %17
V:3
 x6 | z3 z2 D | x6 | x6 | x6 | x6 | x6 | z3 z2 D | x2[K:bass] x4 | x6 | .F3 z3 | x6 | %12
 D2 D D2 [Fd] | x6 | x6 | z2 D z3[K:bass] |[M:5/8] x5 |] %17
V:4
 x6 | z3 z2 D, | x6 | x6 | x6 | x6 | x6 | z3[K:bass] z2 A,, | x6 | x6 | x6 | z3 .[G,D]3 | x6 | x6 | %14
 z3 .B,3 | z2[K:bass] .F, z3 |[M:5/8] x5 |] %17

